img/icons/svg/icon__fb.svg

<svg width="15" height="15" viewBox="0 0 15 15" fill="none" xmlns="http://www.w3.org/2000/svg">
<g clip-path="url(#clip0)">
<path d="M9.99844 2.49062H11.3678V0.105625C11.1316 0.073125 10.3191 0 9.37281 0C7.39844 0 6.04594 1.24187 6.04594 3.52437V5.625H3.86719V8.29125H6.04594V15H8.71719V8.29188H10.8078L11.1397 5.62563H8.71656V3.78875C8.71719 3.01812 8.92469 2.49062 9.99844 2.49062V2.49062Z" fill="white"/>
</g>
<defs>
<clipPath id="clip0">
<rect width="15" height="15" fill="white"/>
</clipPath>
</defs>
</svg>

<svg width="15" height="15" viewBox="0 0 15 15" fill="none" xmlns="http://www.w3.org/2000/svg"><g clip-path="url(#clip0)"><path d="M9.998 2.49h1.37V.107A17.68 17.68 0 009.373 0C7.398 0 6.046 1.242 6.046 3.524v2.101H3.867v2.666h2.179V15h2.671V8.292h2.09l.333-2.666H8.717V3.789c0-.77.208-1.298 1.281-1.298z" fill="#fff"/></g><defs><clipPath id="clip0"><path fill="#fff" d="M0 0h15v15H0z"/></clipPath></defs></svg>
